file/siriusxm.svg

<svg clip-rule="evenodd" fill-rule="evenodd" stroke-linejoin="round" stroke-miterlimit="1.41421" viewBox="0 0 560 400" xmlns="http://www.w3.org/2000/svg"><g fill-rule="nonzero" transform="matrix(1.075 0 0 1.075 64.9456 38.7069)"><path d="m41.2 162.5c1.2 1.5 3.5 1.8 5 .5 1.5-1.2 1.8-3.5.5-5-3-3.7-4.6-8.2-4.6-13 0-4.7 1.5-9.1 4.4-12.8 1.2-1.5.9-3.8-.6-5s-3.8-.9-5 .6c-3.9 4.9-5.9 10.8-5.9 17.1.1 6.5 2.3 12.6 6.2 17.6zm-7.5-43.8c-1.6-1.2-3.8-.9-5 .7-5.7 7.5-8.7 16.5-8.7 25.9s3 18.3 8.6 25.7c1.2 1.6 3.4 1.9 5 .7s1.9-3.4.7-5c-4.7-6.2-7.1-13.6-7.1-21.5s2.5-15.4 7.3-21.6c1.1-1.5.8-3.8-.8-4.9zm-21 26.4c0-11.2 3.3-22.1 9.7-31.3 1.1-1.6.7-3.8-.9-4.9s-3.8-.7-4.9.9c-7.1 10.4-10.9 22.6-10.9 35.3s3.8 24.9 11 35.4c1.1 1.6 3.3 2 4.9.9s2-3.3.9-4.9c-6.4-9.3-9.8-20.1-9.8-31.4zm341.1 17.9c1.5 1.2 3.8 1 5-.5 4-4.9 6.1-11.1 6.1-17.4s-2-12.2-5.9-17.1c-1.2-1.5-3.4-1.8-5-.6-1.5 1.2-1.8 3.4-.6 5 2.9 3.6 4.4 8.1 4.4 12.8 0 4.8-1.6 9.3-4.6 13-1.2 1.3-.9 3.6.6 4.8m12.6 8.7c1.6 1.2 3.8.9 5-.7 5.6-7.5 8.6-16.4 8.6-25.7 0-9.4-3-18.4-8.7-25.9-1.2-1.6-3.4-1.9-5-.7s-1.9 3.4-.7 5c4.8 6.3 7.3 13.7 7.3 21.6 0 7.8-2.5 15.2-7.1 21.5-1.3 1.5-1 3.7.6 4.9m11.3-57.9c6.3 9.2 9.7 20 9.7 31.3s-3.4 22.1-9.7 31.3c-1.1 1.6-.7 3.8.9 4.9s3.8.7 4.9-.9c7.2-10.4 10.9-22.7 10.9-35.4s-3.8-24.9-10.9-35.3c-1.1-1.6-3.3-2-4.9-.9-1.6 1.3-2 3.4-.9 5" fill="#00adee"/><path d="m97.1 189.9 1.5-1.7c1 .8 2.1 1.4 3.3 1.4 1 0 1.6-.4 1.6-1.1 0-.6-.4-.9-2.3-1.4-2.3-.6-3.7-1.2-3.7-3.4 0-2 1.6-3.4 3.9-3.4 1.6 0 3 .5 4.2 1.4l-1.3 1.9c-1-.7-2-1.1-2.9-1.1s-1.4.4-1.4 1c0 .7.5 1 2.4 1.5 2.3.6 3.6 1.4 3.6 3.4 0 2.2-1.7 3.5-4.1 3.5-1.8-.2-3.5-.9-4.8-2m18.7-9.7h2.3l4.8 11.3h-2.6l-1-2.5h-4.7l-1 2.5h-2.6zm2.6 6.6-1.5-3.6-1.5 3.6zm17.4-6.5v2.3h-3.4v8.9h-2.4v-8.9h-3.4v-2.3zm8.5 2.2v2.3h5.3v2.2h-5.3v2.4h6.1v2.2h-8.5v-11.2h8.4v2.2zm20.5 6.8v2.2h-8v-11.2h2.5v9zm20.2-9h2.5v11.2h-2.5zm112-.2c-3.5 0-6 2.6-6 5.8s2.5 5.8 5.9 5.8c3.5 0 6-2.6 6-5.8s-2.5-5.8-5.9-5.8zm0 2.3c2 0 3.4 1.6 3.4 3.5s-1.4 3.5-3.4 3.5-3.4-1.6-3.4-3.5 1.4-3.5 3.4-3.5zm-64.2-2.1v11.2h2.5v-3.6h1.9l2.4 3.6h2.9l-2.7-4c1.4-.5 2.4-1.7 2.4-3.1s-.3-2.3-1-3-1.8-1.1-3.3-1.1zm2.5 2.2h2.4c1.2 0 1.9.5 1.9 1.6 0 1-.7 1.7-1.9 1.7h-2.5zm30-2.2v11.2h4.4c3.5 0 6-2.5 6-5.6 0-3.2-2.4-5.6-6-5.6zm2.5 2.2h1.9c2 0 3.4 1.4 3.4 3.4s-1.4 3.4-3.4 3.4h-1.9zm-193.3-59c-8.5 0-19.4 3.1-19.4 13.5 0 15.9 25.1 10.6 25.1 17.2 0 2.9-2.7 3.7-5.2 3.7-1.6 0-3-.5-4-1.3-1.1-.9-1.7-2.1-1.7-3.8h-15.4c.9 11 11.2 13.9 20.6 13.9 15 0 22.1-5.8 22.1-14.3 0-15.3-25.9-11.5-25.9-17.2 0-2 1.8-2.9 4.6-2.9 1.2 0 2.4.3 3.3 1s1.4 1.6 1.6 3h14.8c-1-10.8-11.5-12.8-20.5-12.8zm230.8 0c-5.9 0-9.6 4.1-11.6 7.3v-6.1h-15v41h16.3v-20.3c0-4.9.1-9.2 4.6-9.1 4.3.1 4.7 2.4 4.7 8.5v20.9h16.3v-20.3c0-4.9 0-9.1 4.5-9.1 4.3 0 4.7 2.4 4.7 8.4v20.9h16.3v-24.3c0-11.2-5.1-17.9-15.4-17.9-5.9 0-9 2.6-12.5 7.5-2-4.3-6.1-7.4-12.9-7.4zm-206 0v6.3h13.2v-6.3zm0 9.1v33.3h13.2v-33.3zm39.1-1c-5.2 0-8.4 2.5-10.2 7.7h-.2v-6.7h-12v33.3h13.2v-11.5c0-7.2 2.7-9.7 8.1-9.7.9 0 1.8.3 2.7.4v-13.2c-.5-.1-1-.3-1.6-.3zm75.4 0c-6.9 0-15.8 2.5-15.8 11 0 12.9 20.4 8.7 20.4 14 0 2.4-2.2 3-4.2 3-1.3 0-2.4-.4-3.2-1-.9-.7-1.4-1.7-1.4-3h-12.6c.7 9 9.1 11.3 16.7 11.3 12.2 0 17.9-4.7 17.9-11.6 0-12.5-21-9.3-21-14 0-1.7 1.5-2.4 3.8-2.4 1 0 2 .3 2.7.8.7.6 1.1 1.3 1.3 2.4h12c-.8-8.8-9.3-10.5-16.6-10.5zm-54.4 1v20.3c0 9.5 4.7 14 12 14 5.5 0 8.7-1.3 12-5.9v4.9h12.3v-33.3h-13.2v16c0 5.1-1.2 8-5 8-3.2 0-4.8-1.5-4.8-6v-18zm89.7-7.9 5.2 10.3 5.5-10.3h17.8l-14 19.5 14.2 21.5h-18.2l-5.8-11.7-5.9 11.7h-18l14.7-21.5-13.6-19.5zm94.7-4.5v.7h-1.4v3.7h-.8v-3.7h-1.4v-.7zm4.4 0h.8v4.5h-.8v-3.2l-1.4 2.1-1.4-2.1v3.2h-.8v-4.5h.8l1.4 2.1zm-205.3 3.3v6.3h13.2v-6.3zm0 9.1v33.3h13.2v-33.3zm36 56.7v2.2h-8v-11.2h2.5v9zm24-9v2.3h-3.4v8.9h-2.5v-8.9h-3.4v-2.3zm8.5 2.2v2.3h5.3v2.2h-5.3v2.4h6.1v2.2h-8.5v-11.2h8.4v2.2zm40.9-2.3h2.3l4.8 11.3h-2.6l-1-2.5h-4.7l-1 2.5h-2.5zm2.6 6.6-1.5-3.6-1.5 3.6zm27.2-6.5h2.5v11.2h-2.5z" fill="#005480"/></g></svg>

<?xml version="1.0" encoding="UTF-8" standalone="no"?>
<!DOCTYPE svg PUBLIC "-//W3C//DTD SVG 1.1//EN" "http://www.w3.org/Graphics/SVG/1.1/DTD/svg11.dtd">
<svg width="100%" height="100%" viewBox="0 0 560 400" version="1.1" xmlns="http://www.w3.org/2000/svg" xmlns:xlink="http://www.w3.org/1999/xlink" xml:space="preserve" xmlns:serif="http://www.serif.com/" style="fill-rule:evenodd;clip-rule:evenodd;stroke-linejoin:round;stroke-miterlimit:1.41421;">
    <g transform="matrix(1.075,0,0,1.075,64.9456,38.7069)">
        <path id="waves" d="M41.2,162.5C42.4,164 44.7,164.3 46.2,163C47.7,161.8 48,159.5 46.7,158C43.7,154.3 42.1,149.8 42.1,145C42.1,140.3 43.6,135.9 46.5,132.2C47.7,130.7 47.4,128.4 45.9,127.2C44.4,126 42.1,126.3 40.9,127.8C37,132.7 35,138.6 35,144.9C35.1,151.4 37.3,157.5 41.2,162.5ZM33.7,118.7C32.1,117.5 29.9,117.8 28.7,119.4C23,126.9 20,135.9 20,145.3C20,154.7 23,163.6 28.6,171C29.8,172.6 32,172.9 33.6,171.7C35.2,170.5 35.5,168.3 34.3,166.7C29.6,160.5 27.2,153.1 27.2,145.2C27.2,137.3 29.7,129.8 34.5,123.6C35.6,122.1 35.3,119.8 33.7,118.7ZM12.7,145.1C12.7,133.9 16,123 22.4,113.8C23.5,112.2 23.1,110 21.5,108.9C19.9,107.8 17.7,108.2 16.6,109.8C9.5,120.2 5.7,132.4 5.7,145.1C5.7,157.8 9.5,170 16.7,180.5C17.8,182.1 20,182.5 21.6,181.4C23.2,180.3 23.6,178.1 22.5,176.5C16.1,167.2 12.7,156.4 12.7,145.1ZM353.8,163C355.3,164.2 357.6,164 358.8,162.5C362.8,157.6 364.9,151.4 364.9,145.1C364.9,138.8 362.9,132.9 359,128C357.8,126.5 355.6,126.2 354,127.4C352.5,128.6 352.2,130.8 353.4,132.4C356.3,136 357.8,140.5 357.8,145.2C357.8,150 356.2,154.5 353.2,158.2C352,159.5 352.3,161.8 353.8,163M366.4,171.7C368,172.9 370.2,172.6 371.4,171C377,163.5 380,154.6 380,145.3C380,135.9 377,126.9 371.3,119.4C370.1,117.8 367.9,117.5 366.3,118.7C364.7,119.9 364.4,122.1 365.6,123.7C370.4,130 372.9,137.4 372.9,145.3C372.9,153.1 370.4,160.5 365.8,166.8C364.5,168.3 364.8,170.5 366.4,171.7M377.7,113.8C384,123 387.4,133.8 387.4,145.1C387.4,156.4 384,167.2 377.7,176.4C376.6,178 377,180.2 378.6,181.3C380.2,182.4 382.4,182 383.5,180.4C390.7,170 394.4,157.7 394.4,145C394.4,132.3 390.6,120.1 383.5,109.7C382.4,108.1 380.2,107.7 378.6,108.8C377,110.1 376.6,112.2 377.7,113.8" style="fill:rgb(0,173,238);fill-rule:nonzero;"/>
        <path id="text" d="M97.1,189.9L98.6,188.2C99.6,189 100.7,189.6 101.9,189.6C102.9,189.6 103.5,189.2 103.5,188.5C103.5,187.9 103.1,187.6 101.2,187.1C98.9,186.5 97.5,185.9 97.5,183.7C97.5,181.7 99.1,180.3 101.4,180.3C103,180.3 104.4,180.8 105.6,181.7L104.3,183.6C103.3,182.9 102.3,182.5 101.4,182.5C100.5,182.5 100,182.9 100,183.5C100,184.2 100.5,184.5 102.4,185C104.7,185.6 106,186.4 106,188.4C106,190.6 104.3,191.9 101.9,191.9C100.1,191.7 98.4,191 97.1,189.9M115.8,180.2L118.1,180.2L122.9,191.5L120.3,191.5L119.3,189L114.6,189L113.6,191.5L111,191.5L115.8,180.2ZM118.4,186.8L116.9,183.2L115.4,186.8L118.4,186.8ZM135.8,180.3L135.8,182.6L132.4,182.6L132.4,191.5L130,191.5L130,182.6L126.6,182.6L126.6,180.3L135.8,180.3ZM144.3,182.5L144.3,184.8L149.6,184.8L149.6,187L144.3,187L144.3,189.4L150.4,189.4L150.4,191.6L141.9,191.6L141.9,180.4L150.3,180.4L150.3,182.6L144.3,182.5ZM164.8,189.3L164.8,191.5L156.8,191.5L156.8,180.3L159.3,180.3L159.3,189.3L164.8,189.3ZM185,180.3L187.5,180.3L187.5,191.5L185,191.5L185,180.3ZM297,180.1C293.5,180.1 291,182.7 291,185.9C291,189.1 293.5,191.7 296.9,191.7C300.4,191.7 302.9,189.1 302.9,185.9C302.9,182.7 300.4,180.1 297,180.1ZM297,182.4C299,182.4 300.4,184 300.4,185.9C300.4,187.8 299,189.4 297,189.4C295,189.4 293.6,187.8 293.6,185.9C293.6,184 295,182.4 297,182.4ZM232.8,180.3L232.8,191.5L235.3,191.5L235.3,187.9L237.2,187.9L239.6,191.5L242.5,191.5L239.8,187.5C241.2,187 242.2,185.8 242.2,184.4C242.2,183 241.9,182.1 241.2,181.4C240.5,180.7 239.4,180.3 237.9,180.3L232.8,180.3ZM235.3,182.5L237.7,182.5C238.9,182.5 239.6,183 239.6,184.1C239.6,185.1 238.9,185.8 237.7,185.8L235.2,185.8L235.3,182.5ZM265.3,180.3L265.3,191.5L269.7,191.5C273.2,191.5 275.7,189 275.7,185.9C275.7,182.7 273.3,180.3 269.7,180.3L265.3,180.3ZM267.8,182.5L269.7,182.5C271.7,182.5 273.1,183.9 273.1,185.9C273.1,187.9 271.7,189.3 269.7,189.3L267.8,189.3L267.8,182.5ZM74.5,123.5C66,123.5 55.1,126.6 55.1,137C55.1,152.9 80.2,147.6 80.2,154.2C80.2,157.1 77.5,157.9 75,157.9C73.4,157.9 72,157.4 71,156.6C69.9,155.7 69.3,154.5 69.3,152.8L53.9,152.8C54.8,163.8 65.1,166.7 74.5,166.7C89.5,166.7 96.6,160.9 96.6,152.4C96.6,137.1 70.7,140.9 70.7,135.2C70.7,133.2 72.5,132.3 75.3,132.3C76.5,132.3 77.7,132.6 78.6,133.3C79.5,134 80,134.9 80.2,136.3L95,136.3C94,125.5 83.5,123.5 74.5,123.5ZM305.3,123.5C299.4,123.5 295.7,127.6 293.7,130.8L293.7,124.7L278.7,124.7L278.7,165.7L295,165.7L295,145.4C295,140.5 295.1,136.2 299.6,136.3C303.9,136.4 304.3,138.7 304.3,144.8L304.3,165.7L320.6,165.7L320.6,145.4C320.6,140.5 320.6,136.3 325.1,136.3C329.4,136.3 329.8,138.7 329.8,144.7L329.8,165.6L346.1,165.6L346.1,141.3C346.1,130.1 341,123.4 330.7,123.4C324.8,123.4 321.7,126 318.2,130.9C316.2,126.6 312.1,123.5 305.3,123.5ZM99.3,123.5L99.3,129.8L112.5,129.8L112.5,123.5L99.3,123.5ZM99.3,132.6L99.3,165.9L112.5,165.9L112.5,132.6L99.3,132.6ZM138.4,131.6C133.2,131.6 130,134.1 128.2,139.3L128,139.3L128,132.6L116,132.6L116,165.9L129.2,165.9L129.2,154.4C129.2,147.2 131.9,144.7 137.3,144.7C138.2,144.7 139.1,145 140,145.1L140,131.9C139.5,131.8 139,131.6 138.4,131.6ZM213.8,131.6C206.9,131.6 198,134.1 198,142.6C198,155.5 218.4,151.3 218.4,156.6C218.4,159 216.2,159.6 214.2,159.6C212.9,159.6 211.8,159.2 211,158.6C210.1,157.9 209.6,156.9 209.6,155.6L197,155.6C197.7,164.6 206.1,166.9 213.7,166.9C225.9,166.9 231.6,162.2 231.6,155.3C231.6,142.8 210.6,146 210.6,141.3C210.6,139.6 212.1,138.9 214.4,138.9C215.4,138.9 216.4,139.2 217.1,139.7C217.8,140.3 218.2,141 218.4,142.1L230.4,142.1C229.6,133.3 221.1,131.6 213.8,131.6ZM159.4,132.6L159.4,152.9C159.4,162.4 164.1,166.9 171.4,166.9C176.9,166.9 180.1,165.6 183.4,161L183.4,165.9L195.7,165.9L195.7,132.6L182.5,132.6L182.5,148.6C182.5,153.7 181.3,156.6 177.5,156.6C174.3,156.6 172.7,155.1 172.7,150.6L172.7,132.6L159.4,132.6ZM249.1,124.7L254.3,135L259.8,124.7L277.6,124.7L263.6,144.2L277.8,165.7L259.6,165.7L253.8,154L247.9,165.7L229.9,165.7L244.6,144.2L231,124.7L249.1,124.7ZM343.8,120.2L343.8,120.9L342.4,120.9L342.4,124.6L341.6,124.6L341.6,120.9L340.2,120.9L340.2,120.2L343.8,120.2ZM348.2,120.2L349,120.2L349,124.7L348.2,124.7L348.2,121.5L346.8,123.6L345.4,121.5L345.4,124.7L344.6,124.7L344.6,120.2L345.4,120.2L346.8,122.3L348.2,120.2ZM142.9,123.5L142.9,129.8L156.1,129.8L156.1,123.5L142.9,123.5ZM142.9,132.6L142.9,165.9L156.1,165.9L156.1,132.6L142.9,132.6ZM178.9,189.3L178.9,191.5L170.9,191.5L170.9,180.3L173.4,180.3L173.4,189.3L178.9,189.3ZM202.9,180.3L202.9,182.6L199.5,182.6L199.5,191.5L197,191.5L197,182.6L193.6,182.6L193.6,180.3L202.9,180.3ZM211.4,182.5L211.4,184.8L216.7,184.8L216.7,187L211.4,187L211.4,189.4L217.5,189.4L217.5,191.6L209,191.6L209,180.4L217.4,180.4L217.4,182.6L211.4,182.5ZM252.3,180.2L254.6,180.2L259.4,191.5L256.8,191.5L255.8,189L251.1,189L250.1,191.5L247.6,191.5L252.3,180.2ZM254.9,186.8L253.4,183.2L251.9,186.8L254.9,186.8ZM282.1,180.3L284.6,180.3L284.6,191.5L282.1,191.5L282.1,180.3Z" style="fill:rgb(0,84,128);fill-rule:nonzero;"/>
    </g>
</svg>
